X:1
T: Mary of Castlecary
C:
R:Reel
Q: 232
K:Am
M:4/4
L:1/8
|:AG|EA A1/2A1/2A A2 Bc|B2 AG Bd dg|ee e1/2e1/2e d2 eg|e2 dB A2 AG|
EA A1/2A1/2A A2 Bc|B2 AG Bd dg|ee e1/2e1/2e d2 eg|e2 dB A2 AB|
Gg g1/2g1/2g g2 ab|B2 AG Bd dg|ea a1/2a1/2a a2 ga|b2 ag e2 eg|
dg g1/2g1/2g g2 ab|B2 AG Bd dg|ee e1/2e1/2e d2 eg|e2 dB A2:|
